src/icons/Airport/airport-14-svgrepo-com.svg

<svg xmlns="http://www.w3.org/2000/svg" viewBox="0 0 14 14"><path d="M14 8v1L8 8v3l2 2v1l-3-1-3 1v-1l2-2V8L0 9V8l6-3V2c0-1 .222-2 1-2s1 1 1 2v3z" style="fill:#000;fill-opacity:1;stroke:none"/></svg>

<?xml version="1.0" encoding="UTF-8" standalone="no"?>


<!-- Uploaded to: SVG Repo, www.svgrepo.com, Generator: SVG Repo Mixer Tools -->
<svg 
   xmlns:dc="http://purl.org/dc/elements/1.1/"
   xmlns:cc="http://creativecommons.org/ns#"
   xmlns:rdf="http://www.w3.org/1999/02/22-rdf-syntax-ns#"
   xmlns:svg="http://www.w3.org/2000/svg"
   xmlns="http://www.w3.org/2000/svg"
   version="1.1"
   width="100%"
   height="100%"
   viewBox="0 0 14 14"
   id="svg2">
  <metadata
     id="metadata8">
    <rdf:RDF>
      <cc:Work
         rdf:about="">
        <dc:format>image/svg+xml</dc:format>
        <dc:type
           rdf:resource="http://purl.org/dc/dcmitype/StillImage" />
        <dc:title></dc:title>
      </cc:Work>
    </rdf:RDF>
  </metadata>
  <defs
     id="defs6" />
  <rect
     width="14"
     height="14"
     x="0"
     y="0"
     id="canvas"
     style="fill:none;stroke:none;visibility:hidden" />
  <path
     d="m 14,8 0,1 -6,-1 0,3 2,2 0,1 L 7,13 4,14 4,13 6,11 6,8 0,9 0,8 6,5 6,2 C 6,1 6.22222,0 7,0 7.77777,0 8,1 8,2 l 0,3 z"
     id="airport"
     style="fill:#000000;fill-opacity:1;stroke:none" />
</svg>
